img/odn-Icon.svg

<svg width="45" height="45" viewBox="0 0 45 45" fill="none" xmlns="http://www.w3.org/2000/svg">
<path d="M19.279 14.9859C19.279 16.8409 20.7828 18.3449 22.6379 18.3449C24.4929 18.3449 25.9967 16.8409 25.9967 14.9859C25.9967 13.1309 24.4929 11.6271 22.6379 11.6271C20.7828 11.6271 19.279 13.1309 19.279 14.9859Z" fill="#CACACA"/>
<path fill-rule="evenodd" clip-rule="evenodd" d="M22.5 45C34.9264 45 45 34.9264 45 22.5C45 10.0736 34.9264 0 22.5 0C10.0736 0 0 10.0736 0 22.5C0 34.9264 10.0736 45 22.5 45ZM14.5125 14.9858C14.5125 10.4984 18.1503 6.86047 22.6379 6.86047C27.1254 6.86047 30.7632 10.4984 30.7632 14.9858C30.7632 19.4734 27.1254 23.1115 22.6379 23.1115C18.1503 23.1115 14.5125 19.4734 14.5125 14.9858ZM30.8117 27.291C30.7086 27.3737 28.7593 28.9142 25.5064 29.5769L30.4165 34.4432C31.28 35.3053 31.2811 36.7042 30.419 37.5677C29.5569 38.431 28.1583 38.4324 27.2945 37.5701L22.5276 32.928L18.1979 37.5402C17.7644 37.9899 17.1862 38.216 16.6074 38.216C16.0553 38.216 15.5027 38.0106 15.074 37.5972C14.1956 36.7502 14.1701 35.3516 15.0171 34.4733L19.6777 29.6025C16.3336 28.9555 14.3039 27.3749 14.1993 27.291C13.2475 26.5277 13.0946 25.1372 13.8579 24.1852C14.6212 23.2334 16.0115 23.0805 16.9636 23.8437C16.9837 23.86 19.1067 25.4549 22.5275 25.4572C25.9483 25.4549 28.0273 23.86 28.0474 23.8437C28.9995 23.0805 30.3899 23.2334 31.1531 24.1852C31.9165 25.1372 31.7636 26.5277 30.8117 27.291Z" fill="#CACACA"/>
</svg>

<svg xmlns="http://www.w3.org/2000/svg" width="45" height="45" fill="none"><path fill="#CACACA" d="M19.279 14.986a3.359 3.359 0 1 0 6.718 0 3.359 3.359 0 0 0-6.718 0"/><path fill="#CACACA" fill-rule="evenodd" d="M22.5 45C34.926 45 45 34.926 45 22.5S34.926 0 22.5 0 0 10.074 0 22.5 10.074 45 22.5 45m-7.988-30.014a8.125 8.125 0 1 1 16.251 0 8.125 8.125 0 0 1-16.25 0m16.3 12.305c-.103.083-2.053 1.623-5.306 2.286l4.91 4.866a2.21 2.21 0 1 1-3.122 3.127l-4.766-4.642-4.33 4.612a2.2 2.2 0 0 1-1.59.676 2.21 2.21 0 0 1-1.59-3.743l4.66-4.87c-3.344-.648-5.374-2.228-5.479-2.312a2.21 2.21 0 0 1 2.765-3.447c.02.016 2.143 1.61 5.564 1.613 3.42-.002 5.5-1.597 5.52-1.613a2.21 2.21 0 0 1 2.764 3.447" clip-rule="evenodd"/></svg>
